src/actions/24/document-print-direct.svg

<svg viewBox="0 0 24 24" xmlns="http://www.w3.org/2000/svg">
 <defs>
  <style type="text/css">.ColorScheme-Text {
        color:#2e3440;
      }</style>
 </defs>
 <path class="ColorScheme-Text" transform="translate(1,1)" d="m5 3v1 4h-2v1 7h1 3v2 1h8v-3h1v-3h-1-9v2h-2v-6h14v3 1h1v-1-3-1h-2v-4-1h-12zm1 1h10v4h-1v-1h-8v1h-1v-4zm1 1v1h8v-1h-8zm-2 5v1h3v-1h-3zm12 4v5l3-2.5-3-2.5zm-9 2h6v2h-6v-2z" fill="currentColor"/>
</svg>

<svg xmlns="http://www.w3.org/2000/svg" viewBox="0 0 24 24">
  <defs id="defs3051">
    <style type="text/css" id="current-color-scheme">
      .ColorScheme-Text {
        color:#2e3440;
      }
      </style>
  </defs>
 <path 
    style="fill:currentColor;fill-opacity:1;stroke:none" 
	d="M 5 3 L 5 4 L 5 8 L 3 8 L 3 9 L 3 16 L 4 16 L 7 16 L 7 18 L 7 19 L 15 19 L 15 16 L 16 16 L 16 13 L 15 13 L 6 13 L 6 15 L 4 15 L 4 9 L 18 9 L 18 12 L 18 13 L 19 13 L 19 12 L 19 9 L 19 8 L 17 8 L 17 4 L 17 3 L 5 3 z M 6 4 L 16 4 L 16 8 L 15 8 L 15 7 L 7 7 L 7 8 L 6 8 L 6 4 z M 7 5 L 7 6 L 15 6 L 15 5 L 7 5 z M 5 10 L 5 11 L 8 11 L 8 10 L 5 10 z M 17 14 L 17 19 L 20 16.5 L 17 14 z M 8 16 L 14 16 L 14 18 L 8 18 L 8 16 z "
    class="ColorScheme-Text"
     transform="translate(1,1)"
    />
</svg>
